( Generated by Carbide Copper )
( Material Size )
( X= 80.000, Y= 80.000, Z= 1.580 )
()
G17
G21
G54
G90
M05
(  )
T502 M06
( Contour )
M03 S10000
G0  X22.073 Y-20.458
G0  Z3.000
G01 F400 Z0
G01 F400 Z-0.100
G01F400X21.756 Y-20.526
X21.460 Y-20.657
X21.199 Y-20.847
X16.195 Y-25.851
X15.981 Y-26.089
X15.819 Y-26.369
X15.719 Y-26.678
X15.685 Y-26.997
X15.685 Y-51.768
X15.719 Y-52.087
X15.819 Y-52.396
X15.981 Y-52.676
X16.195 Y-52.914
X18.774 Y-55.493
X18.819 Y-55.631
X18.981 Y-55.911
X19.198 Y-56.152
X19.460 Y-56.343
X19.756 Y-56.474
X20.073 Y-56.542
X20.397 Y-56.542
X20.714 Y-56.474
X21.010 Y-56.343
X21.272 Y-56.152
X21.489 Y-55.911
X21.651 Y-55.631
X21.751 Y-55.322
X21.785 Y-55.003
X21.785 Y-54.762
X21.751 Y-54.443
X21.651 Y-54.134
X21.489 Y-53.854
X21.275 Y-53.616
X18.785 Y-51.126
X18.785 Y-27.639
X23.275 Y-23.149
X23.489 Y-22.911
X23.651 Y-22.631
X23.751 Y-22.322
X23.785 Y-22.000
X23.751 Y-21.678
X23.651 Y-21.369
X23.489 Y-21.089
X23.272 Y-20.848
X23.010 Y-20.657
X22.714 Y-20.526
X22.397 Y-20.458
X22.073 Y-20.458
G0 Z3.000
G0  X52.553 Y-20.458
G0  Z3.000
G01 F400 Z0
G01 F400 Z-0.100
G01F400X52.236 Y-20.526
X51.940 Y-20.657
X51.678 Y-20.848
X51.461 Y-21.089
X51.299 Y-21.369
X51.199 Y-21.678
X51.165 Y-22.000
X51.199 Y-22.322
X51.299 Y-22.631
X51.461 Y-22.911
X51.675 Y-23.149
X56.685 Y-28.159
X56.685 Y-46.596
X49.675 Y-53.606
X49.461 Y-53.844
X49.299 Y-54.124
X49.199 Y-54.433
X49.165 Y-54.752
X49.165 Y-55.003
X49.199 Y-55.322
X49.299 Y-55.631
X49.461 Y-55.911
X49.678 Y-56.152
X49.940 Y-56.343
X50.236 Y-56.474
X50.553 Y-56.542
X50.877 Y-56.542
X51.194 Y-56.474
X51.490 Y-56.343
X51.752 Y-56.152
X51.969 Y-55.911
X52.131 Y-55.631
X52.181 Y-55.479
X59.275 Y-48.384
X59.489 Y-48.146
X59.651 Y-47.866
X59.751 Y-47.557
X59.785 Y-47.238
X59.785 Y-27.517
X59.751 Y-27.198
X59.651 Y-26.889
X59.489 Y-26.609
X59.275 Y-26.371
X53.751 Y-20.847
X53.490 Y-20.657
X53.194 Y-20.526
X52.877 Y-20.458
X52.553 Y-20.458
G0 Z3.000
G0  X52.544 Y-20.368
G0  Z3.000
G01 F400 Z0
G01 F400 Z-0.100
G01F400X52.208 Y-20.440
X51.895 Y-20.579
X51.617 Y-20.781
X51.388 Y-21.036
X51.216 Y-21.333
X51.110 Y-21.659
X51.074 Y-22.000
X51.110 Y-22.341
X51.216 Y-22.667
X51.388 Y-22.964
X51.610 Y-23.211
X56.595 Y-28.196
X56.595 Y-46.559
X49.610 Y-53.544
X49.388 Y-53.791
X49.216 Y-54.088
X49.110 Y-54.414
X49.075 Y-54.748
X49.075 Y-55.007
X49.110 Y-55.341
X49.216 Y-55.667
X49.388 Y-55.964
X49.617 Y-56.219
X49.895 Y-56.421
X50.208 Y-56.561
X50.544 Y-56.632
X50.887 Y-56.632
X51.222 Y-56.561
X51.535 Y-56.421
X51.813 Y-56.219
X52.042 Y-55.964
X52.214 Y-55.667
X52.260 Y-55.527
X59.340 Y-48.446
X59.562 Y-48.199
X59.734 Y-47.902
X59.840 Y-47.576
X59.875 Y-47.242
X59.875 Y-27.513
X59.840 Y-27.179
X59.734 Y-26.853
X59.562 Y-26.556
X59.340 Y-26.309
X53.810 Y-20.778
X53.535 Y-20.579
X53.222 Y-20.440
X52.887 Y-20.368
X52.544 Y-20.368
G0 Z3.000
G0  X22.064 Y-20.368
G0  Z3.000
G01 F400 Z0
G01 F400 Z-0.100
G01F400X21.728 Y-20.440
X21.415 Y-20.579
X21.140 Y-20.778
X16.130 Y-25.789
X15.908 Y-26.036
X15.736 Y-26.333
X15.630 Y-26.659
X15.595 Y-26.993
X15.595 Y-51.772
X15.630 Y-52.106
X15.736 Y-52.432
X15.908 Y-52.729
X16.130 Y-52.976
X18.695 Y-55.542
X18.736 Y-55.667
X18.908 Y-55.964
X19.137 Y-56.219
X19.415 Y-56.421
X19.728 Y-56.561
X20.064 Y-56.632
X20.407 Y-56.632
X20.742 Y-56.561
X21.055 Y-56.421
X21.333 Y-56.219
X21.562 Y-55.964
X21.734 Y-55.667
X21.840 Y-55.341
X21.875 Y-55.007
X21.875 Y-54.758
X21.840 Y-54.424
X21.734 Y-54.098
X21.562 Y-53.801
X21.340 Y-53.554
X18.875 Y-51.089
X18.875 Y-27.676
X23.340 Y-23.211
X23.562 Y-22.964
X23.734 Y-22.667
X23.840 Y-22.341
X23.876 Y-22.000
X23.840 Y-21.659
X23.734 Y-21.333
X23.562 Y-21.036
X23.333 Y-20.781
X23.055 Y-20.579
X22.742 Y-20.440
X22.407 Y-20.368
X22.064 Y-20.368
G0 Z3.000
G0  X22.054 Y-20.278
G0  Z3.000
G01 F400 Z0
G01 F400 Z-0.100
G01F400X21.700 Y-20.353
X21.370 Y-20.501
X21.082 Y-20.710
X16.064 Y-25.727
X15.834 Y-25.982
X15.653 Y-26.296
X15.542 Y-26.640
X15.505 Y-26.988
X15.505 Y-51.777
X15.542 Y-52.125
X15.653 Y-52.469
X15.834 Y-52.783
X16.064 Y-53.038
X18.616 Y-55.590
X18.653 Y-55.704
X18.834 Y-56.018
X19.076 Y-56.287
X19.370 Y-56.499
X19.700 Y-56.647
X20.054 Y-56.722
X20.416 Y-56.722
X20.770 Y-56.647
X21.101 Y-56.499
X21.393 Y-56.287
X21.636 Y-56.018
X21.817 Y-55.704
X21.928 Y-55.360
X21.965 Y-55.012
X21.965 Y-54.753
X21.928 Y-54.405
X21.817 Y-54.061
X21.636 Y-53.747
X21.406 Y-53.492
X18.965 Y-51.051
X18.965 Y-27.714
X23.406 Y-23.273
X23.636 Y-23.018
X23.817 Y-22.704
X23.928 Y-22.360
X23.966 Y-22.000
X23.928 Y-21.640
X23.817 Y-21.296
X23.636 Y-20.982
X23.393 Y-20.713
X23.101 Y-20.501
X22.770 Y-20.353
X22.416 Y-20.278
X22.054 Y-20.278
G0 Z3.000
G0  X52.534 Y-20.278
G0  Z3.000
G01 F400 Z0
G01 F400 Z-0.100
G01F400X52.180 Y-20.353
X51.849 Y-20.501
X51.556 Y-20.713
X51.314 Y-20.982
X51.133 Y-21.296
X51.022 Y-21.640
X50.984 Y-22.000
X51.022 Y-22.360
X51.133 Y-22.704
X51.314 Y-23.018
X51.544 Y-23.273
X56.505 Y-28.234
X56.505 Y-46.521
X49.544 Y-53.482
X49.314 Y-53.737
X49.133 Y-54.051
X49.022 Y-54.395
X48.985 Y-54.743
X48.985 Y-55.012
X49.022 Y-55.360
X49.133 Y-55.704
X49.314 Y-56.018
X49.556 Y-56.287
X49.849 Y-56.499
X50.180 Y-56.647
X50.534 Y-56.722
X50.896 Y-56.722
X51.250 Y-56.647
X51.581 Y-56.499
X51.873 Y-56.287
X52.116 Y-56.018
X52.297 Y-55.704
X52.339 Y-55.575
X59.406 Y-48.508
X59.636 Y-48.253
X59.817 Y-47.939
X59.928 Y-47.595
X59.965 Y-47.247
X59.965 Y-27.508
X59.928 Y-27.160
X59.817 Y-26.816
X59.636 Y-26.502
X59.406 Y-26.247
X53.869 Y-20.710
X53.581 Y-20.501
X53.250 Y-20.353
X52.896 Y-20.278
X52.534 Y-20.278
G0 Z3.000
G00 Z3.000
M05
M30
%