(G-code generated by FlatCAM Evo vUnstable - Version Date: 2023/6/31)

(Name: KotakSaja-B_Cu.gbr_iso_combined_cnc)
(Type: G-code from Geometry)
(Units: MM)

(Created on Monday, 09 March 2026 at 12:41)

(This preprocessor is the default preprocessor.)
(It is made to work with MACH3 compatible motion controllers.)

(TOOL DIAMETER: 0.1 mm)
(Feedrate_XY: 300.0 mm/min)
(Feedrate_Z: 120.0 mm/min)
(Feedrate rapids 1500.0 mm/min)

(Z_Cut: -0.08 mm)
(Z_Move: 2.0 mm)
(Z Start: None mm)
(Z End: 15.0 mm)
(X,Y End: None mm)
(Steps per circle: 16)
(Preprocessor Geometry: default)

(X range:   15.6842 ...   59.7858  mm)
(Y range:  -56.5508 ...  -20.4492  mm)

(Spindle Speed: 0.0 RPM)
G21
G90
G94

G01 F300.00
G00 Z2.0000

M03
G01 F300.00
G00 X15.6842 Y-47.2350
G01 F120.00
G01 Z-0.0800
G01 F300.00
G01 X15.6842 Y-27.5200
G01 X15.6920 Y-27.3656
G01 X15.7140 Y-27.2175
G01 X15.7510 Y-27.0698
G01 X15.8023 Y-26.9266
G01 X15.8686 Y-26.7868
G01 X15.9456 Y-26.6584
G01 X16.0347 Y-26.5381
G01 X16.1376 Y-26.4243
G01 X21.6585 Y-20.9035
G01 X21.7694 Y-20.8029
G01 X21.8934 Y-20.7106
G01 X22.0262 Y-20.6313
G01 X22.1616 Y-20.5673
G01 X22.3025 Y-20.5168
G01 X22.4525 Y-20.4790
G01 X22.6030 Y-20.4567
G01 X22.7575 Y-20.4493
G01 X22.9070 Y-20.4567
G01 X23.0551 Y-20.4786
G01 X23.2052 Y-20.5160
G01 X23.3484 Y-20.5673
G01 X23.4860 Y-20.6324
G01 X23.6166 Y-20.7106
G01 X23.7406 Y-20.8029
G01 X23.8515 Y-20.9035
G01 X23.9521 Y-21.0144
G01 X24.0430 Y-21.1364
G01 X24.1226 Y-21.2690
G01 X24.1877 Y-21.4066
G01 X24.2390 Y-21.5498
G01 X24.2764 Y-21.6999
G01 X24.2985 Y-21.8504
G01 X24.3058 Y-22.0000
G01 X24.2985 Y-22.1496
G01 X24.2760 Y-22.3025
G01 X24.2390 Y-22.4502
G01 X24.1877 Y-22.5934
G01 X24.1214 Y-22.7332
G01 X24.0444 Y-22.8616
G01 X23.9553 Y-22.9819
G01 X23.8515 Y-23.0965
G01 X18.7858 Y-28.1623
G01 X18.7858 Y-46.5927
G01 X25.8515 Y-53.6585
G01 X25.9553 Y-53.7731
G01 X26.0444 Y-53.8934
G01 X26.1226 Y-54.0240
G01 X26.1877 Y-54.1616
G01 X26.2390 Y-54.3048
G01 X26.2760 Y-54.4525
G01 X26.2983 Y-54.6030
G01 X26.3058 Y-55.0000
G01 X26.2983 Y-55.1520
G01 X26.2764 Y-55.3001
G01 X26.2382 Y-55.4525
G01 X26.1877 Y-55.5934
G01 X26.1226 Y-55.7310
G01 X26.0444 Y-55.8616
G01 X25.9537 Y-55.9838
G01 X25.8515 Y-56.0965
G01 X25.7388 Y-56.1987
G01 X25.6166 Y-56.2894
G01 X25.4860 Y-56.3676
G01 X25.3484 Y-56.4327
G01 X25.2052 Y-56.4840
G01 X25.0575 Y-56.5210
G01 X24.9070 Y-56.5433
G01 X24.7550 Y-56.5508
G01 X24.6030 Y-56.5433
G01 X24.4525 Y-56.5210
G01 X24.3048 Y-56.4840
G01 X24.1616 Y-56.4327
G01 X24.0240 Y-56.3676
G01 X23.8934 Y-56.2894
G01 X23.7712 Y-56.1987
G01 X23.6568 Y-56.0948
G01 X23.5563 Y-55.9838
G01 X23.4656 Y-55.8616
G01 X23.3863 Y-55.7288
G01 X23.3223 Y-55.5934
G01 X23.2787 Y-55.4718
G01 X16.1385 Y-48.3315
G01 X16.0379 Y-48.2206
G01 X15.9456 Y-48.0966
G01 X15.8686 Y-47.9682
G01 X15.8014 Y-47.8262
G01 X15.7510 Y-47.6852
G01 X15.7140 Y-47.5375
G01 X15.6917 Y-47.3870
G01 X15.6842 Y-47.2350
G00 Z2.0000
G00 X53.6917 Y-54.6130
G01 F120.00
G01 Z-0.0800
G01 F300.00
G01 X53.7140 Y-54.4625
G01 X53.7504 Y-54.3172
G01 X53.8023 Y-54.1716
G01 X53.8686 Y-54.0318
G01 X53.9456 Y-53.9034
G01 X54.0363 Y-53.7812
G01 X54.1385 Y-53.6685
G01 X56.6842 Y-51.1227
G01 X56.6842 Y-27.6423
G01 X52.1385 Y-23.0965
G01 X52.0363 Y-22.9838
G01 X51.9470 Y-22.8636
G01 X51.8663 Y-22.7288
G01 X51.8023 Y-22.5934
G01 X51.7518 Y-22.4525
G01 X51.7140 Y-22.3025
G01 X51.6915 Y-22.1496
G01 X51.6842 Y-22.0000
G01 X51.6915 Y-21.8504
G01 X51.7140 Y-21.6975
G01 X51.7518 Y-21.5475
G01 X51.8023 Y-21.4066
G01 X51.8663 Y-21.2712
G01 X51.9443 Y-21.1405
G01 X52.0363 Y-21.0162
G01 X52.1402 Y-20.9018
G01 X52.2512 Y-20.8013
G01 X52.3714 Y-20.7120
G01 X52.5040 Y-20.6324
G01 X52.6438 Y-20.5664
G01 X52.7848 Y-20.5160
G01 X52.9301 Y-20.4796
G01 X53.0830 Y-20.4567
G01 X53.2350 Y-20.4492
G01 X53.3870 Y-20.4567
G01 X53.5375 Y-20.4790
G01 X53.6852 Y-20.5160
G01 X53.8284 Y-20.5673
G01 X53.9660 Y-20.6324
G01 X54.0966 Y-20.7106
G01 X54.2188 Y-20.8013
G01 X54.3315 Y-20.9035
G01 X59.3315 Y-25.9035
G01 X59.4321 Y-26.0144
G01 X59.5257 Y-26.1405
G01 X59.6026 Y-26.2690
G01 X59.6686 Y-26.4088
G01 X59.7190 Y-26.5498
G01 X59.7560 Y-26.6975
G01 X59.7783 Y-26.8480
G01 X59.7857 Y-26.9988
G01 X59.7858 Y-51.7650
G01 X59.7783 Y-51.9170
G01 X59.7560 Y-52.0675
G01 X59.7182 Y-52.2175
G01 X59.6677 Y-52.3584
G01 X59.6037 Y-52.4938
G01 X59.5244 Y-52.6266
G01 X59.4321 Y-52.7506
G01 X59.3315 Y-52.8615
G01 X56.7057 Y-55.4874
G01 X56.6677 Y-55.5934
G01 X56.6037 Y-55.7288
G01 X56.5257 Y-55.8595
G01 X56.4337 Y-55.9838
G01 X56.3315 Y-56.0965
G01 X56.2188 Y-56.1987
G01 X56.0966 Y-56.2894
G01 X55.9660 Y-56.3676
G01 X55.8284 Y-56.4327
G01 X55.6828 Y-56.4846
G01 X55.5375 Y-56.5210
G01 X55.3894 Y-56.5430
G01 X55.2350 Y-56.5508
G01 X55.0806 Y-56.5430
G01 X54.9325 Y-56.5210
G01 X54.7872 Y-56.4846
G01 X54.6416 Y-56.4327
G01 X54.5018 Y-56.3664
G01 X54.3734 Y-56.2894
G01 X54.2512 Y-56.1987
G01 X54.1385 Y-56.0965
G01 X54.0379 Y-55.9856
G01 X53.9456 Y-55.8616
G01 X53.8663 Y-55.7288
G01 X53.8023 Y-55.5934
G01 X53.7518 Y-55.4525
G01 X53.7140 Y-55.3025
G01 X53.6915 Y-55.1496
G01 X53.6842 Y-54.7650
G01 X53.6917 Y-54.6130
G00 Z2.0000
M05
G00 Z2.0000
G00 Z15.00


